X:1
T:Title
%%score ( 1 2 ) { 3 | 4 }
L:1/8
Q:1/4=145
M:6/4
K:G
V:1 treble nm="Grand Piano, Soprano"
V:2 treble 
V:3 bass nm="Choir Pad, Bass"
V:4 bass 
V:1
 D2 D2 [CE]2 [CF]2 [DG]2 [DF]2 | [DG]2 [FA]2 G2 [FA]2 [GB]4 | [GB]2 [Ad]2 [Ac]2 [GB]2 [DB]2 [DA]2 | %3
w: By~Carey~Bonner,~1905 * * * * *|||
 G2 [FA]4- [FA]4- [FA]3/2 z/ | DD G2 [GA]2 [GB]2 [Gc]2 [GB]2 | [Gc]2 [=Fd]2 [Fc]2 [Fd]2 [Ee]4 | %6
w: |||
 [Ge][Ge] [Gd]2 [Gc]2 [GB]2 [DA]2 [DG]2 | [DF]2 [DG]4- [DG]4- [DG]3/2 z/ | %8
w: ||
 DD [Fc]2 [Gc]2 [Ac]2 [GB]4 | GG [Fe]2 [Fe]2 [Fe]2 [Gd]4 | [GB][Gc] [Gd]2 [GB]2 [Ge]2 d2 B2 | %11
w: |||
 [GB][Gc] [Gd]2 [GB]2 [Ge]2 [Gd]4 | [DG][DA] [DB]2 G2 [Gc]2 [GB]2 G2 | [FA]2 G4- G4- G3/2 z/ |] %14
w: |||
V:2
 x12 | x12 | x12 | x12 | x12 | x12 | x12 | x12 | x12 | x12 | z6 z2 G4 | x12 | x12 | x12 |] %14
V:3
 B,2 B,2 C2 A,2 B,2 A,2 | B,2[K:treble] C2 B,2 D2 D4 | D2 D2 D2 D2 D2 D2 | ^C2 D4- D4- D3/2 z/ | %4
 DD B,2 C2 D2 E2 D2 | E2[K:bass] B,2 A,2 B,2 C4 | C[K:treble]C B,2 E2 D2 C2[K:bass] B,2 | %7
 A,2 B,4- B,4- B,3/2 z/ | DD D2 D2 D2 D4 | DD C2 C2 C2 D4 | DD D2 D2 C2 D4 | %11
 DD D2 D2 C2[K:bass] B,4 | B,C D2 B,2 E2 D2 B,2 | C2 B,4- B,4- B,3/2 z/ |] %14
V:4
 G,2 G,2 G,2 G,2 G,2 G,2 | G,2 D,2 D,2 D,2 G,4 | G,2 F,2 F,2 G,2 G,2 F,2 | E,2 D,4- D,4- D,3/2 z/ | %4
 D,D, G,2 G,2 G,2 G,2 G,2 | G,2 G,2 G,2 G,2 C,4 | C,C, D,2 D,2 D,2 D,2 D,2 | %7
 D,2 G,,4- G,,4- G,,3/2 z/ | D,D, D,2 E,2 F,2 G,4 | B, .B,3 A,2 z2 B,4 | G,A, B,2 G,2 z2 B,2 G,2 | %11
 G,A, B,2 G,2 C,2 G,4 | G,G, G,2 G,2 C,2 D,2 D,2 | D,2 G,4- G,4- G,3/2 z/ |] %14

